X:1
T:Title
%%score { ( 1 3 ) | ( 2 4 ) }
L:1/8
M:4/4
K:C
V:1 treble nm="Grand Piano"
V:3 treble 
V:2 bass 
V:4 bass 
V:1
 z4 z2[Q:1/4=90] [CE][DF] | [EG][EG][_E^F][=EG] [Ec][Ec][Ed][Ec] | [FB]2 F2 F2 DE | %3
 FFEF [FB][FA][EG][DF] | [CE]2 [EA]2 [EG]2 [CE][DF] | [EG][EG][_E^F][=EG] [Ec][Ec][=FB][Gc] | %6
[M:9/8] d2 A- A d2- dcA |[M:4/4] GG^FG [FA]2 [=Fd]2 |[M:3/4] [Ec]6 |[M:1/4] [CE][DF] | %10
[M:4/4] [EG][EG][_E^F][=EG] [Ec]2 [Ed]2 | [FB]6 z2 | FFEF [FB]2 [FA]2 | G6 z2 | %14
 [EG][EG][_E^F][=EG] [Ec][Ec][EG][EG] |[M:17/16] AA^GAdd3/2cA |[M:4/4] G^FGc [FA]2 [=Fd]2 | %17
[M:3/4] c2- [Fc-]2 [Ec]2 |] %18
V:2
 z4 z2 [C,G,][C,G,] | [C,C][C,C][C,C][C,C] [C,G,][C,G,][C,G,][C,G,] | %2
 [D,G,]2 [G,B,D]2 [G,B,D]2 [G,B,][G,C] | [G,B,D][G,B,D][G,C][G,B,D] [G,,G,][G,,G,][A,,G,][B,,G,] | %4
 [C,G,]2 [C,C]2 [C,C]2 [C,G,][C,G,] | [C,C][C,C][C,C][C,C] [C,G,][C,G,][D,G,][E,C] | %6
[M:9/8] [F,A,F]2 [F,CF]- [F,CF] [F,A,F]2- [F,A,F][F,A,_E][F,CE] | %7
[M:4/4] [G,CE][G,CE][G,C_E][G,C=E] [D,C]2 [G,B,]2 |[M:3/4] [C,G,C]6 |[M:1/4] [C,G,][C,G,] | %10
[M:4/4] [C,C][C,C][C,C][C,C] [C,G,]2 [C,G,]2 | [D,G,]2 D,2 G,,2 [F,G,][E,G,C] | %12
 [D,G,B,][D,G,B,][D,G,B,][D,G,B,] [G,,G,]2 [B,,G,]2 | [C,G,]2 [D,B,]2 [C,C]2 [C,G,C][C,G,] | %14
 [C,C][C,C][C,C][C,C] [C,G,][C,G,][C,C][C,C] | %15
[M:17/16] [F,CF][F,CF][F,B,F][F,CF][F,A,F][F,A,F]3/2[^F,A,_E][F,C=E] | %16
[M:4/4] [G,CE][G,C_E][G,C=E][G,CE] [D,C]2 [G,B,]2 |[M:3/4] z2 A,2 G,2 |] %18
V:3
 x8 | x8 | x8 | x8 | x8 | x8 |[M:9/8] x9 |[M:4/4] x8 |[M:3/4] x6 |[M:1/4] x2 |[M:4/4] x8 | %11
 z2 G,2 G,2 DE | x8 | E2 F2 E2 E[DF] | x8 |[M:17/16] x17/2 |[M:4/4] x8 |[M:3/4] [CE]2 z2 z2 |] %18
V:4
 x8 | x8 | x8 | x8 | x8 | x8 |[M:9/8] x9 |[M:4/4] x8 |[M:3/4] x6 |[M:1/4] x2 |[M:4/4] x8 | x8 | %12
 x8 | x8 | x8 |[M:17/16] x17/2 |[M:4/4] x8 |[M:3/4] C,6 |] %18

